X:111
T:Cambridge Hornpipe  (D)
C:Traditional
R:hornpipe, reel
N:Suggested tune for Domino Five
B:RSCDS "A Second Book of Graded Scottish Country Dances" (Graded 2) p.23 #11
Z:2011 John Chambers <jc:trillian.mit.edu>
M:4/4
L:1/8
K:D
A,{B,}C |\
"D"D2DC "A7"DFAc | "D"d2dc "F#/D"dAFA | "G/Em"BGED "A7"CDEF | "Em"GE"D"FD "C#/A"EA,CE |
"D"D2DC "A7"DFAc | "D"d2dc "F#/D"dAFA | "G/Em"BGED "A7"CDEC | "D"D2F2 "D"D2 :|
|: "A7"FG |\
"D"A2d2 "F#/D"AFDF | "G/Em"E2e2 "Em"EFGA | "A7"ceAc "C#/A7"eAce | "D"dfAd "A/D"fAdf |
"F#/D"a2f2 "D7"d2A2 | "G"BdGB "F#/D"AFDF | "Em"E2cB "A7"AGFE | "D"DdAF "D"D2 :|
